images/logo-white.svg

<svg width="110" height="23" viewBox="0 0 110 23" fill="none" xmlns="http://www.w3.org/2000/svg">
<g clip-path="url(#clip0_1624_326)">
<path d="M109.805 17.0152V19.7374H107.522C105.085 19.6608 103.783 18.345 103.783 15.8735V9.65636H102.189V7.26839H103.783V4.59497H107.153V7.24054H109.729V9.62155H107.153V15.5393C107.153 16.3399 107.313 16.9804 108.545 16.9804L109.805 17.0152Z" fill="white"/>
<path d="M88.7587 13.5272V13.3462C88.7223 12.5455 88.8442 11.7454 89.1176 10.9919C89.3909 10.2384 89.8103 9.54621 90.3516 8.95507C90.8929 8.36393 91.5456 7.88543 92.2722 7.54701C92.9989 7.20859 93.7851 7.01689 94.586 6.98291C94.7461 6.98291 94.9132 6.98291 95.0733 6.98291C98.2549 6.98291 101.047 8.83481 101.047 13.2487V14.1886H92.2049C92.2955 16.2215 93.3954 17.3703 95.2473 17.3703C96.8417 17.3703 97.5866 16.674 97.8024 15.6576H100.984C100.594 18.3101 98.4777 19.7861 95.129 19.7861C91.453 19.7582 88.7587 17.4329 88.7587 13.5272ZM97.7328 12.0582C97.6144 10.2063 96.6815 9.31519 95.0594 9.31519C93.4372 9.31519 92.5043 10.3177 92.2746 12.0582H97.7328Z" fill="white"/>
<path d="M75.0019 13.5272V13.3462C74.9655 12.5466 75.0869 11.7476 75.3594 10.995C75.6319 10.2423 76.05 9.55078 76.5899 8.95982C77.1297 8.36886 77.7808 7.89009 78.5058 7.55088C79.2308 7.21167 80.0156 7.01867 80.8152 6.98291C80.9754 6.98291 81.1424 6.98291 81.3026 6.98291C84.4842 6.98291 87.2829 8.83481 87.2829 13.2487V14.1886H78.4481C78.5386 16.2215 79.6386 17.3703 81.4905 17.3703C83.0848 17.3703 83.8298 16.674 84.0456 15.6576H87.2272C86.8304 18.3101 84.714 19.7861 81.3652 19.7861C77.6962 19.7582 75.0019 17.4329 75.0019 13.5272ZM83.976 12.0582C83.8576 10.2063 82.9247 9.31519 81.3026 9.31519C79.6804 9.31519 78.7753 10.3456 78.5178 12.0513L83.976 12.0582Z" fill="white"/>
<path d="M55.6963 7.24048H59.2608L61.44 15.4974L63.8279 7.24048H66.6127L68.771 15.4974L71.0684 7.24048H74.3336L70.4627 19.5076H67.121L65.0324 11.8076L62.7976 19.5076H59.414L55.6963 7.24048Z" fill="white"/>
<path d="M44.3689 15.6506H47.5505C47.6967 16.7576 48.2467 17.3912 49.7088 17.3912C51.0176 17.3912 51.6233 16.8969 51.6233 16.0544C51.6233 15.212 50.9271 14.857 49.1449 14.6063C45.8797 14.112 44.6195 13.1722 44.6195 10.7772C44.6195 8.22217 46.9588 6.95508 49.493 6.95508C52.2151 6.95508 54.2689 7.94369 54.5613 10.7633H51.4214C51.4014 10.5453 51.3384 10.3335 51.236 10.14C51.1336 9.94652 50.9939 9.77525 50.8249 9.63607C50.656 9.49689 50.4611 9.39257 50.2516 9.32913C50.0421 9.2657 49.8221 9.2444 49.6043 9.26647H49.4999C48.3999 9.26647 47.7594 9.78166 47.7594 10.5336C47.7594 11.2855 48.3512 11.6127 50.1474 11.8703C53.1967 12.3298 54.9024 13.1025 54.9024 15.7272C54.9024 18.3519 52.974 19.7582 49.7436 19.7582C46.5132 19.7582 44.4594 18.3032 44.3689 15.6506Z" fill="white"/>
<path d="M30.8486 7.24047H34.2183V9.18288C34.5981 8.46992 35.1746 7.88099 35.8792 7.48607C36.5839 7.09114 37.3872 6.90683 38.1936 6.95503C40.5815 6.95503 42.3151 8.41009 42.3151 11.731V19.5354H38.9872V12.2183C38.9872 10.5544 38.3398 9.76072 36.836 9.76072C36.5181 9.73305 36.198 9.76843 35.8938 9.86482C35.5897 9.96122 35.3076 10.1167 35.0637 10.3224C34.8198 10.5281 34.619 10.78 34.4727 11.0635C34.3264 11.3471 34.2376 11.6567 34.2113 11.9746C34.1939 12.1227 34.1939 12.2722 34.2113 12.4202V19.5076H30.8486V7.24047Z" fill="white"/>
<path d="M24.3461 4.15644C24.3339 3.82047 24.4216 3.48844 24.5982 3.20238C24.7748 2.91631 25.0323 2.68908 25.3382 2.54945C25.644 2.40982 25.9843 2.36407 26.3162 2.41799C26.648 2.47192 26.9564 2.62309 27.2023 2.85237C27.4481 3.08165 27.6204 3.37873 27.6974 3.706C27.7743 4.03326 27.7524 4.376 27.6344 4.69081C27.5165 5.00562 27.3077 5.27835 27.0347 5.47446C26.7616 5.67058 26.4365 5.78127 26.1005 5.79252H26.0379C25.8293 5.80572 25.6202 5.77761 25.4226 5.70982C25.2249 5.64202 25.0426 5.53587 24.8861 5.39744C24.7295 5.25902 24.6019 5.09106 24.5104 4.90319C24.4189 4.71531 24.3655 4.51123 24.3531 4.30264C24.3473 4.25413 24.3449 4.20528 24.3461 4.15644ZM24.3461 7.24062H27.7505V19.5077H24.36L24.3461 7.24062Z" fill="white"/>
<path d="M11.5151 2.74292H22.2784V5.7157H15.3164V10.1505H20.8303V13.0119H15.3094V19.5075H11.5151V2.74292Z" fill="white"/>
<path d="M5.01962 8.22911C5.01962 9.28038 5.01962 10.5614 3.57152 11.0835C5.05443 11.5918 5.01962 12.6709 5.01962 13.7987V17.976C5.01962 18.7696 5.33987 19.25 5.91076 19.3684C6.0362 19.4107 6.16836 19.4296 6.30063 19.4241H7.69304V22.2089H5.39557C2.94494 22.2089 1.5943 20.8165 1.5943 18.2335V13.2905C1.57692 13.0367 1.46503 12.7987 1.28071 12.6234C1.0964 12.4481 0.853055 12.3483 0.598734 12.3437H0V9.9H0.598734C0.85813 9.89658 1.10625 9.79342 1.29162 9.61194C1.47699 9.43046 1.58538 9.18458 1.5943 8.92532V3.91266C1.5943 1.37152 2.91709 0 5.39557 0H7.71393V2.74304H6.32152C6.18909 2.74342 6.05753 2.76456 5.93165 2.8057C5.36076 2.9519 5.04051 3.42532 5.04051 4.1981L5.01962 8.22911Z" fill="white"/>
</g>
<defs>
<clipPath id="clip0_1624_326">
<rect width="110" height="22.2785" fill="white"/>
</clipPath>
</defs>
</svg>

<svg xmlns="http://www.w3.org/2000/svg" width="110" height="23" fill="none"><g fill="#fff" clip-path="url(#a)"><path d="M109.805 17.015v2.722h-2.283c-2.437-.076-3.739-1.392-3.739-3.863V9.655h-1.594V7.268h1.594V4.595h3.37v2.646h2.576v2.38h-2.576v5.918c0 .8.16 1.441 1.392 1.441l1.26.035ZM88.759 13.527v-.18a6.092 6.092 0 0 1 5.827-6.364h.487c3.182 0 5.974 1.852 5.974 6.266v.94h-8.842c.09 2.032 1.19 3.181 3.042 3.181 1.595 0 2.34-.696 2.555-1.712h3.182c-.39 2.652-2.506 4.128-5.855 4.128-3.676-.028-6.37-2.353-6.37-6.259Zm8.974-1.469c-.119-1.852-1.052-2.743-2.674-2.743-1.622 0-2.555 1.003-2.784 2.743h5.458ZM75.002 13.527v-.18a6.092 6.092 0 0 1 5.813-6.364h.488c3.181 0 5.98 1.852 5.98 6.266v.94h-8.835c.09 2.032 1.19 3.181 3.043 3.181 1.594 0 2.339-.696 2.555-1.712h3.181c-.397 2.652-2.513 4.128-5.862 4.128-3.669-.028-6.363-2.353-6.363-6.259Zm8.974-1.469c-.118-1.852-1.051-2.743-2.673-2.743-1.623 0-2.528 1.03-2.785 2.736l5.458.007ZM55.696 7.24h3.565l2.179 8.257 2.388-8.257h2.785l2.158 8.257 2.297-8.257h3.266l-3.871 12.268H67.12l-2.089-7.7-2.234 7.7h-3.384L55.696 7.24ZM44.369 15.65h3.181c.147 1.108.697 1.741 2.159 1.741 1.309 0 1.914-.494 1.914-1.337 0-.842-.696-1.197-2.478-1.448-3.265-.494-4.526-1.434-4.526-3.829 0-2.555 2.34-3.822 4.874-3.822 2.722 0 4.776.989 5.068 3.808h-3.14a1.656 1.656 0 0 0-1.817-1.497H49.5c-1.1 0-1.74.516-1.74 1.268s.591 1.079 2.387 1.336c3.05.46 4.755 1.232 4.755 3.857s-1.928 4.031-5.158 4.031c-3.23 0-5.285-1.455-5.375-4.107ZM30.849 7.24h3.37v1.943a4.22 4.22 0 0 1 3.975-2.228c2.387 0 4.121 1.455 4.121 4.776v7.804h-3.328v-7.317c0-1.664-.647-2.457-2.151-2.457a2.423 2.423 0 0 0-2.625 2.214 1.908 1.908 0 0 0 0 .445v7.088H30.85V7.24ZM24.346 4.156a1.699 1.699 0 1 1 1.755 1.637h-.063a1.587 1.587 0 0 1-1.685-1.49 1.02 1.02 0 0 1-.007-.147Zm0 3.085h3.404v12.267h-3.39L24.346 7.24ZM11.515 2.743h10.763v2.973h-6.962v4.434h5.514v2.862h-5.52v6.495h-3.795V2.744ZM5.02 8.23c0 1.05 0 2.331-1.448 2.854 1.482.508 1.448 1.587 1.448 2.715v4.177c0 .794.32 1.274.89 1.392.126.043.258.062.39.056h1.393v2.785H5.396c-2.451 0-3.802-1.392-3.802-3.976V13.29a1.016 1.016 0 0 0-.995-.946H0V9.9h.599a1.01 1.01 0 0 0 .995-.975V3.913C1.594 1.372 2.917 0 5.396 0h2.318v2.743H6.322c-.133 0-.264.022-.39.063-.571.146-.891.62-.891 1.392L5.02 8.23Z"/></g><defs><clipPath id="a"><path fill="#fff" d="M0 0h110v22.279H0z"/></clipPath></defs></svg>
